icons/arrow-doublehead-d-a.svg

<svg width="24" height="24" viewBox="0 0 24 24" fill="none" xmlns="http://www.w3.org/2000/svg">
<path fill-rule="evenodd" clip-rule="evenodd" d="M17.7983 17.7983C17.5054 18.0912 17.0305 18.0912 16.7376 17.7983L6.20172 7.26239C5.90883 6.9695 5.90883 6.49463 6.20172 6.20173C6.49462 5.90884 6.96949 5.90884 7.26238 6.20173L17.7983 16.7376C18.0912 17.0305 18.0912 17.5054 17.7983 17.7983Z" fill="black"/>
<path fill-rule="evenodd" clip-rule="evenodd" d="M10.7197 17.5509C10.7197 17.1366 11.0555 16.8009 11.4697 16.8009L16.6367 16.8009C16.713 16.7831 16.7595 16.7512 16.7818 16.7288C16.7945 16.7161 16.799 16.7073 16.8001 16.7046C16.8005 16.7038 16.8007 16.7034 16.8007 16.7031L16.7301 11.409C16.7246 10.9949 17.0559 10.6546 17.4701 10.6491C17.8843 10.6436 18.2245 10.9749 18.23 11.389L18.3009 16.7023C18.3009 17.5898 17.5761 18.1836 16.8083 18.2933L16.7556 18.3009L11.4697 18.3009C11.0555 18.3009 10.7197 17.9651 10.7197 17.5509Z" fill="black"/>
<path fill-rule="evenodd" clip-rule="evenodd" d="M6.5199 13.2096C6.10568 13.2096 5.7699 12.8738 5.7699 12.4596L5.7699 7.22701C5.7699 6.38854 6.45924 5.6992 7.29771 5.6992L12.5303 5.6992C12.9445 5.6992 13.2803 6.03498 13.2803 6.4492C13.2803 6.86341 12.9445 7.1992 12.5303 7.1992L7.29771 7.1992C7.29739 7.1992 7.2902 7.19918 7.28004 7.20934C7.26988 7.2195 7.2699 7.22669 7.2699 7.22701L7.2699 12.4596C7.2699 12.8738 6.93411 13.2096 6.5199 13.2096Z" fill="black"/>
</svg>

<svg xmlns="http://www.w3.org/2000/svg" fill="none" viewBox="0 0 24 24">
  <path fill="#000" fill-rule="evenodd" d="M17.798 17.798a.75.75 0 0 1-1.06 0L6.202 7.262a.75.75 0 0 1 1.06-1.06l10.536 10.536a.75.75 0 0 1 0 1.06Z" clip-rule="evenodd"/>
  <path fill="#000" fill-rule="evenodd" d="M10.72 17.55a.75.75 0 0 1 .75-.75h5.167a.302.302 0 0 0 .145-.071.083.083 0 0 0 .019-.026l-.07-5.294a.75.75 0 0 1 1.499-.02l.07 5.313c0 .888-.724 1.482-1.492 1.591l-.052.008H11.47a.75.75 0 0 1-.75-.75Zm-4.2-4.34a.75.75 0 0 1-.75-.75V7.227c0-.838.69-1.528 1.528-1.528h5.232a.75.75 0 0 1 0 1.5H7.298s-.008 0-.018.01c-.01.01-.01.018-.01.018v5.233a.75.75 0 0 1-.75.75Z" clip-rule="evenodd"/>
</svg>
